X:1589
T:Erdő mellett, de magos
M:4/4
L:1/4
K:F
G/G/B/B/ A/A/ D | G/G/B/B/ d/d/c/B/ | A<G G z | 
G/G/B/B/ A/A/ D | G/G/B/B/ d/d/c/B/ | A<G G z | 
d c B F | d c B F | B c d2 |
G/G/B/B/ A/A/ D | G/G/B/B/ d/d/c/B/ | A<G G z | 

